icons/svg/shopping/cannabis.svg

<?xml version="1.0" encoding="UTF-8" standalone="no"?>
<!-- Created with Inkscape (http://www.inkscape.org/) -->

<svg
   xmlns:dc="http://purl.org/dc/elements/1.1/"
   xmlns:cc="http://creativecommons.org/ns#"
   xmlns:rdf="http://www.w3.org/1999/02/22-rdf-syntax-ns#"
   xmlns:svg="http://www.w3.org/2000/svg"
   xmlns="http://www.w3.org/2000/svg"
   xmlns:sodipodi="http://sodipodi.sourceforge.net/DTD/sodipodi-0.dtd"
   xmlns:inkscape="http://www.inkscape.org/namespaces/inkscape"
   version="1.0"
   width="580"
   height="580"
   id="svg2"
   sodipodi:version="0.32"
   inkscape:version="0.91 r13725"
   sodipodi:docname="cannabis.svg"
   inkscape:output_extension="org.inkscape.output.svg.inkscape">
  <defs
     id="defs3263">
    <inkscape:perspective
       sodipodi:type="inkscape:persp3d"
       inkscape:vp_x="0 : 290 : 1"
       inkscape:vp_y="0 : 1000 : 0"
       inkscape:vp_z="580 : 290 : 1"
       inkscape:persp3d-origin="290 : 193.33333 : 1"
       id="perspective3265" />
  </defs>
  <metadata
     id="metadata2975">
    <rdf:RDF>
      <cc:Work
         rdf:about="">
        <dc:format>image/svg+xml</dc:format>
        <dc:type
           rdf:resource="http://purl.org/dc/dcmitype/StillImage" />
        <cc:license
           rdf:resource="http://web.resource.org/cc/PublicDomain" />
        <dc:language>en</dc:language>
        <dc:title />
      </cc:Work>
    </rdf:RDF>
  </metadata>
  <sodipodi:namedview
     inkscape:window-height="1006"
     inkscape:window-width="1920"
     inkscape:pageshadow="2"
     inkscape:pageopacity="0.0"
     guidetolerance="10.0"
     gridtolerance="10.0"
     objecttolerance="10.0"
     borderopacity="1.0"
     bordercolor="#666666"
     pagecolor="#ffffff"
     id="base"
     inkscape:zoom="0.65172414"
     inkscape:cx="-40.523101"
     inkscape:cy="286.54343"
     inkscape:window-x="1920"
     inkscape:window-y="0"
     inkscape:current-layer="svg2"
     showgrid="false"
     inkscape:window-maximized="1" />
  <g
     id="g1327">
    <path
       d="M 66.275,1.768 C 24.94,1.768 1.704,23.139 1.704,66.804 L 1.704,516.927 C 1.704,557.771 22.599,579.156 63.896,579.156 L 515.92,579.156 C 557.227,579.156 578.149,558.841 578.149,516.927 L 578.149,66.804 C 578.149,24.203 557.227,1.768 514.628,1.768 C 514.624,1.768 66.133,1.625 66.275,1.768 z "
       style="fill:#111;stroke:#eee;stroke-width:3.40799999"
       id="path1329" />
  </g>
  <path
     style="fill:#ffffff;fill-opacity:1"
     d="m 274.75191,478.22248 0.53406,-55.36045 -3.96878,6.36795 c -9.53378,15.29706 -28.89089,33.62074 -43.94186,43.0016 -10.0085,6.23802 -33.78232,17.37315 -37.09217,17.37315 -3.83098,0 7.32132,-25.0353 18.84663,-42.30802 7.94902,-11.91298 22.58109,-27.51925 32.48836,-34.65139 3.25304,-2.34182 5.69424,-4.47824 5.42491,-4.74757 -0.26934,-0.26934 -6.96668,1.07862 -14.88296,2.99545 -40.94353,9.91395 -86.76756,6.46661 -130.36136,-9.8071 -13.720609,-5.12195 -26.896258,-11.2047 -26.896258,-12.4171 0,-2.98252 35.656138,-16.34674 57.614728,-21.59448 32.88103,-7.85803 60.57243,-8.42113 94.83303,-1.92837 2.82731,0.53581 -0.32115,-1.9777 -9.74552,-7.78013 -57.42729,-35.35705 -98.17805,-84.92611 -123.827201,-150.62291 -6.493453,-16.63209 -7.443725,-20.64167 -4.892069,-20.64167 3.565133,0 30.0695,10.89521 46.47581,19.10493 44.61303,22.32434 79.72594,50.90712 106.28014,86.51469 6.68853,8.96891 13.16365,17.82883 14.38916,19.68869 1.64922,2.5029 1.23486,-0.58606 -1.59463,-11.88773 -13.68693,-54.6688 -14.78516,-109.43648 -3.28655,-163.8968 6.53341,-30.94387 19.22114,-67.716541 32.86366,-95.248285 l 5.85132,-11.808478 5.80674,11.592016 c 17.06719,34.071377 31.0341,79.670947 37.45168,122.273277 3.18613,21.15078 4.25985,59.95947 2.21482,80.05247 -1.9434,19.0944 -7.13668,48.46871 -11.02576,62.3641 -1.45622,5.20292 -2.46368,9.27516 -2.23881,9.04941 0.22486,-0.22575 4.6168,-6.36217 9.75986,-13.6365 29.58219,-41.84101 63.73447,-70.72312 112.00708,-94.72289 17.1228,-8.51296 43.6942,-19.4389 47.27458,-19.4389 2.04301,0 1.87702,1.06387 -1.86274,11.93805 -4.781,13.90179 -13.40612,32.90938 -21.79052,48.02082 -27.42633,49.4312 -59.17845,82.97081 -105.76212,111.71601 -9.10082,5.61582 -11.92335,7.91448 -9.04941,7.36983 34.38435,-6.5162 62.58359,-5.92227 94.85283,1.9978 22.76834,5.58819 57.59493,18.67588 57.59493,21.64393 0,1.46002 -21.25136,10.55937 -35.76413,15.3134 -26.5762,8.70572 -46.82158,12.09716 -72.13269,12.08343 -22.79797,-0.0125 -33.43063,-1.22341 -52.7801,-6.01162 -6.05748,-1.49897 -11.22504,-2.51396 -11.48347,-2.25552 -0.25844,0.25844 2.19168,2.38593 5.44472,4.72775 15.15363,10.90895 33.60145,33.42263 43.35812,52.91415 4.92669,9.84237 9.64451,22.66836 8.68946,23.62341 -1.36247,1.36248 -22.77687,-8.00613 -35.21694,-15.4071 -16.32348,-9.71131 -35.95903,-28.50029 -46.49012,-44.48576 l -3.74131,-6.16097 0.26703,55.09343 0,61.50206 c 0,0 -1.09339,11.62311 -15.05928,11.70657 -13.96588,0.0834 -15.4369,-11.70657 -15.4369,-11.70657 z"
     id="path4149"
     inkscape:connector-curvature="0"
     sodipodi:nodetypes="ccssssscsssssssssssssscsssscssssssssssssssssssccczcc" />
</svg>

<svg width="580" height="580" viewBox="0 0 580 580" fill="none" xmlns="http://www.w3.org/2000/svg">
<g clip-path="url(#clip0)">
<path d="M66.2751 1.76766C24.9401 1.76766 1.7041 23.1387 1.7041 66.8037V516.927C1.7041 557.771 22.5991 579.156 63.8961 579.156H515.92C557.227 579.156 578.149 558.841 578.149 516.927V66.8037C578.149 24.2027 557.227 1.76766 514.628 1.76766C514.624 1.76766 66.1331 1.62466 66.2751 1.76766Z" fill="#111111" stroke="#EEEEEE" stroke-width="3.408"/>
<path d="M274.752 478.222L275.286 422.862L271.317 429.23C261.783 444.527 242.426 462.851 227.375 472.231C217.367 478.469 193.593 489.605 190.283 489.605C186.452 489.605 197.604 464.569 209.13 447.297C217.079 435.384 231.711 419.777 241.618 412.645C244.871 410.303 247.312 408.167 247.043 407.898C246.774 407.628 240.076 408.976 232.16 410.893C191.216 420.807 145.392 417.36 101.799 401.086C88.078 395.964 74.9023 389.881 74.9023 388.669C74.9023 385.686 110.558 372.322 132.517 367.074C165.398 359.216 193.089 358.653 227.35 365.146C230.177 365.682 227.029 363.168 217.605 357.366C160.177 322.009 119.427 272.44 93.7774 206.743C87.2839 190.111 86.3337 186.101 88.8853 186.101C92.4504 186.101 118.955 196.997 135.361 205.206C179.974 227.531 215.087 256.113 241.641 291.721C248.33 300.69 254.805 309.55 256.03 311.41C257.68 313.913 257.265 310.824 254.436 299.522C240.749 244.853 239.651 190.085 251.149 135.625C257.683 104.681 270.37 67.9086 284.013 40.3768L289.864 28.5684L295.671 40.1604C312.738 74.2318 326.705 119.831 333.123 162.434C336.309 183.584 337.382 222.393 335.337 242.486C333.394 261.581 328.201 290.955 324.312 304.85C322.855 310.053 321.848 314.125 322.073 313.9C322.298 313.674 326.69 307.537 331.833 300.263C361.415 258.422 395.567 229.54 443.84 205.54C460.963 197.027 487.534 186.101 491.114 186.101C493.157 186.101 492.991 187.165 489.252 198.039C484.471 211.941 475.846 230.949 467.461 246.06C440.035 295.491 408.283 329.031 361.699 357.776C352.598 363.392 349.776 365.691 352.65 365.146C387.034 358.63 415.233 359.224 447.502 367.144C470.271 372.732 505.097 385.82 505.097 388.788C505.097 390.248 483.846 399.347 469.333 404.101C442.757 412.807 422.512 416.198 397.201 416.185C374.403 416.172 363.77 414.961 344.42 410.173C338.363 408.674 333.195 407.659 332.937 407.917C332.679 408.176 335.129 410.303 338.382 412.645C353.535 423.554 371.983 446.068 381.74 465.559C386.666 475.402 391.384 488.228 390.429 489.183C389.067 490.545 367.652 481.177 355.212 473.776C338.889 464.064 319.253 445.275 308.722 429.29L304.981 423.129L305.248 478.222V539.724C305.248 539.724 304.155 551.348 290.189 551.431C276.223 551.514 274.752 539.724 274.752 539.724V478.222Z" fill="white"/>
</g>
<defs>
<clipPath id="clip0">
<path d="M0 0H580V580H0V0Z" fill="white"/>
</clipPath>
</defs>
</svg>
